src/assets/icons/tokenTypeThree.svg

<?xml version="1.0" encoding="iso-8859-1"?>
<!-- Generator: Adobe Illustrator 17.1.0, SVG Export Plug-In . SVG Version: 6.00 Build 0)  -->
<!DOCTYPE svg PUBLIC "-//W3C//DTD SVG 1.1//EN" "http://www.w3.org/Graphics/SVG/1.1/DTD/svg11.dtd">
<svg version="1.1" id="Capa_1" xmlns="http://www.w3.org/2000/svg" xmlns:xlink="http://www.w3.org/1999/xlink" x="0px" y="0px"
	 viewBox="0 0 296.332 296.332" style="enable-background:new 0 0 296.332 296.332;" xml:space="preserve" fill="#FDF6EB">
<g>
	<path d="M25.953,296.332h244.426c0-61-23.169-94.511-57.946-110.193l-48.621,37.926l-16.313-24.768l-15.313,24.85l-49.117-37.644
		C48.754,202.339,25.953,235.332,25.953,296.332z M198.506,223.332l15.458,15.148l15.458-15.148c0,0,8.32,15.757-15.458,33.774
		C190.186,239.089,198.506,223.332,198.506,223.332z"/>
	<path d="M147.499,199.352l40.914-20.809c-0.024-0.006-0.049-0.011-0.074-0.017c23.666-13.833,39.577-39.492,39.577-68.883
		c0-8.094-1.216-15.902-3.457-23.264c-15.886,7.908-43.949,19.014-76.293,19.014c-32.344,0-60.407-11.105-76.293-19.014
		c-2.241,7.361-3.457,15.17-3.457,23.264c0,29.361,15.878,54.999,39.505,68.842L147.499,199.352z"/>
	<path d="M147.833,89.393c34.568,0,65-14.458,76-20.971V53.601c15-5.669,23.168-12.968,23.168-20.933
		C247.001,14.625,202.76,0,148.083,0S48.957,14.625,48.957,32.668c0,7.965,8.876,15.264,22.876,20.933v14.81
		C83.833,74.916,113.393,89.393,147.833,89.393z M165.166,45.332c0,2.498-0.553,4.863-1.521,7h0.521c4.418,0,8,3.582,8,8
		s-3.582,8-8,8h-33c-4.418,0-8-3.582-8-8s3.582-8,8-8h1.52c-0.968-2.137-1.52-4.502-1.52-7c0-9.389,7.611-17,17-17
		S165.166,35.943,165.166,45.332z"/>
</g>
<g>
</g>
<g>
</g>
<g>
</g>
<g>
</g>
<g>
</g>
<g>
</g>
<g>
</g>
<g>
</g>
<g>
</g>
<g>
</g>
<g>
</g>
<g>
</g>
<g>
</g>
<g>
</g>
<g>
</g>
</svg>

<?xml version="1.0" encoding="UTF-8" standalone="no"?>
<!DOCTYPE svg PUBLIC "-//W3C//DTD SVG 1.1//EN" "http://www.w3.org/Graphics/SVG/1.1/DTD/svg11.dtd">
<svg width="100%" height="100%" viewBox="0 0 297 297" version="1.1" xmlns="http://www.w3.org/2000/svg" xmlns:xlink="http://www.w3.org/1999/xlink" xml:space="preserve" xmlns:serif="http://www.serif.com/" style="fill-rule:evenodd;clip-rule:evenodd;stroke-linejoin:round;stroke-miterlimit:1.41421;">
    <g>
        <path d="M25.953,296.332L270.379,296.332C270.379,235.332 247.21,201.821 212.433,186.139L163.812,224.065L147.499,199.297L132.186,224.147L83.069,186.503C48.754,202.339 25.953,235.332 25.953,296.332ZM198.506,223.332L213.964,238.48L229.422,223.332C229.422,223.332 237.742,239.089 213.964,257.106C190.186,239.089 198.506,223.332 198.506,223.332Z" style="fill:rgb(251,227,194);fill-rule:nonzero;"/>
        <path d="M147.499,199.352L188.413,178.543C188.389,178.537 188.364,178.532 188.339,178.526C212.005,164.693 227.916,139.034 227.916,109.643C227.916,101.549 226.7,93.741 224.459,86.379C208.573,94.287 180.51,105.393 148.166,105.393C115.822,105.393 87.759,94.288 71.873,86.379C69.632,93.74 68.416,101.549 68.416,109.643C68.416,139.004 84.294,164.642 107.921,178.485L147.499,199.352Z" style="fill:rgb(251,227,194);fill-rule:nonzero;"/>
        <path d="M147.833,89.393C182.401,89.393 212.833,74.935 223.833,68.422L223.833,53.601C238.833,47.932 247.001,40.633 247.001,32.668C247.001,14.625 202.76,0 148.083,0C93.406,0 48.957,14.625 48.957,32.668C48.957,40.633 57.833,47.932 71.833,53.601L71.833,68.411C83.833,74.916 113.393,89.393 147.833,89.393ZM165.166,45.332C165.166,47.83 164.613,50.195 163.645,52.332L164.166,52.332C168.584,52.332 172.166,55.914 172.166,60.332C172.166,64.75 168.584,68.332 164.166,68.332L131.166,68.332C126.748,68.332 123.166,64.75 123.166,60.332C123.166,55.914 126.748,52.332 131.166,52.332L132.686,52.332C131.718,50.195 131.166,47.83 131.166,45.332C131.166,35.943 138.777,28.332 148.166,28.332C157.555,28.332 165.166,35.943 165.166,45.332Z" style="fill:rgb(251,227,194);fill-rule:nonzero;"/>
    </g>
</svg>
